!!!!SEGMENT: pl-wtm--r-1664--012_stefani-jozef--okropnosc-czyli-nowa-lafarge-no-8-allegro.krn
!!!cenid: 18xx:2067
!!!COM: Stefani, Józef
!!!COM-rism: pe30024097
!!!CDT: 1800/04/16-1876/03/19
!!!CNT: Polish
!!!OTL: Okropność czyli Nowa Lafarge – No. 8 – Allegro
!!!PDT:
!!!AGN: Secular
!!!SMS-siglum: PL-Wtm
!!!SMS-shelfmark: R 1664
!!!SMS-variant:
!!!SMS-altvar:
!!!NIFC-rismID: 1001114328
!!!OMD: Allegro.
!!!system-decoration: {(s1,s2)}[(s3,s4,s5)][(s6,s7)]{(s8,s9)}[(s10)][(s11)][(s12,s13)][(s14)]
**kern	**kern	**dynam	**kern	**kern	**text	**kern	**dynam	**kern	**dynam	**kern	**dynam	**kern	**dynam	**kern	**kern	**dynam	**kern	**dynam	**kern	**dynam	**kern	**dynam	**kern	**dynam
*part14	*part13	*part13	*part12	*part11	*part11	*part10	*part10	*part9	*part9	*part8	*part8	*part7	*part7	*part6	*part5	*part5	*part4	*part4	*part3	*part3	*part2	*part2	*part1	*part1
*staff14	*staff13	*	*staff12	*staff11	*staff11	*staff10	*	*staff9	*	*staff8	*	*staff7	*	*staff6	*staff5	*	*staff4	*	*staff3	*	*staff2	*	*staff1	*
*I"[Timpani]	*I"Baſsi	*	*I"[Violoncelli]	*I"Voce	*	*I"Viole	*	*	*	*I"Violini Io.	*	*I"Trombone	*	*I"Tromba in C	*I"Fagoto	*	*I"Corni in C	*	*I"Clarinetti in C	*	*I"Oboe	*	*I"Flauto	*
*I'Timp.	*I'B.	*	*I'Vc.	*I'V	*	*I'Va	*	*	*	*	*	*I'Trb	*	*I'Tr-ba	*I'Fag.	*	*I'C. in C	*	*I'Cl. in C.	*	*I'Ob.	*	*I'Fl.	*
*clefF1	*clefF4	*	*clefF4	*clefG2	*	*clefC3	*	*clefG2	*	*clefG2	*	*clefF4	*	*clefG2	*clefF4	*	*clefG2	*	*clefG2	*	*clefG2	*	*clefG2	*
*	*Trd0c0	*	*	*	*	*	*	*	*	*	*	*	*	*	*	*	*	*	*	*	*	*	*	*
*k[f#]	*k[f#]	*	*k[f#]	*k[f#]	*	*k[f#]	*	*k[f#]	*	*k[f#]	*	*k[f#]	*	*k[f#]	*k[f#]	*	*k[f#]	*	*k[f#]	*	*k[f#]	*	*k[f#]	*
*M2/4	*M2/4	*	*M2/4	*M2/4	*	*M2/4	*	*M2/4	*	*M2/4	*	*M2/4	*	*M2/4	*M2/4	*	*M2/4	*	*M2/4	*	*M2/4	*	*M2/4	*
*stria1	*	*	*	*	*	*	*	*	*	*	*	*	*	*	*	*	*	*	*	*	*	*	*	*
=1	=1	=1	=1	=1	=1	=1	=1	=1	=1	=1	=1	=1	=1	=1	=1	=1	=1	=1	=1	=1	=1	=1	=1	=1
*	*	*	*	*	*	*	*	*	*	*	*	*	*	*	*	*	*	*	*	*	*2\right	*	*2\right	*
!	!LO:TX:t=P:problem:all\right:global	!	!	!LO:TX:t=P:problem:all\right:global	!	!LO:TX:t=P:problem:all\right:global	!	!LO:TX:t=P:problem:all\right:global	!	!	!	!	!	!	!	!	!	!	!	!	!	!	!	!
!	!	!	!	!	!	!	!	!	!	!	!	!	!	!	!	!	!	!	!LO:TX:t=P:problem:all\right:global	!	!LO:TX:t=P:problem:all\right:global	!	!LO:TX:t=P:problem:all\right:global	!
!	!	!	!	!	!	!	!	!	!	!LO:TX:t=P:problem:all\right:global	!	!LO:TX:t=P:problem:all\right:global	!	!LO:TX:t=P:problem:all\right:global	!LO:TX:t=P:problem:all\right:global	!	!LO:TX:t=P:problem:all\right:global	!	!	!	!	!	!	!
!	!	!	!	!	!	!	!	!	!	!	!	!	!	!	!	!	!	!	!	!	!	!	!LO:TX:t=P:problem:w źródle klamry przy Violini (violino primo, violino secundo) oraz Flauto i Oboe; reszta głosów pogrupowana w kodzie	!
!LO:TX:a:t=P:problem:w źródle brak w partyturze partii Timpani	!	!	!	!	!	!	!	!	!	!	!	!	!	!	!	!	!	!	!	!	!	!	!	!
!	!	!	!LO:TX:a:t=P:problem:w źródle brak w partyturze partii Violoncelli [możliwe, że instrument gra tą samą partię co Baſsi]	!	!	!	!	!	!	!	!	!	!	!	!	!	!	!	!	!	!	!	!	!
!	!	!	!	!	!	!	!	!	!	!	!	!	!	!	!	!	!	!	!	!	!	!	!LO:TX:a:Bi:t=No 8.:problem:dla całej partytury	!
2ryy	2r	.	2ryy	2r	.	2r	.	16r	.	16r	.	2r	.	2r	2r	.	2r	.	16r	.	16ryy	.	16r	.
!	!	!	!	!	!	!	!	!	!	!	!	!	!	!	!	!	!	!	!	!	!LO:TX:a:Bi:t=Col Fl.	!	!	!
!	!	!	!	!	!	!	!	!	!LO:DY:b:rj	!	!LO:DY:b:rj	!	!	!	!	!	!	!	!	!	!	!LO:DY:b:rj	!	!LO:DY:b:rj
.	.	.	.	.	.	.	.	(<16d/LL	f	(>16dd\LL	f	.	.	.	.	.	.	.	(<16d/LL	.	(>16dd\LLyy	fyy	(>16dd\LL	f
.	.	.	.	.	.	.	.	16c#X/	.	16cc#X\	.	.	.	.	.	.	.	.	16c#X/	.	16cc#X\yy	.	16cc#X\	.
.	.	.	.	.	.	.	.	16d/JJ	.	16dd\JJ	.	.	.	.	.	.	.	.	16d/JJ	.	16dd\JJyy	.	16dd\JJ	.
.	.	.	.	.	.	.	.	16d#X/LL	.	16dd#X\LL	.	.	.	.	.	.	.	.	16d#X/LL	.	16dd#X\LLyy	.	16dd#X\LL	.
.	.	.	.	.	.	.	.	16e/	.	16ee\	.	.	.	.	.	.	.	.	16e/	.	16ee\yy	.	16ee\	.
.	.	.	.	.	.	.	.	16fn/	.	16ffn\	.	.	.	.	.	.	.	.	16fn/	.	16ffn\yy	.	16ffn\	.
.	.	.	.	.	.	.	.	16f#X/JJ)	.	16ff#X\JJ)	.	.	.	.	.	.	.	.	16f#X/JJ)	.	16ff#X\JJ)yy	.	16ff#X\JJ)	.
=2	=2	=2	=2	=2	=2	=2	=2	=2	=2	=2	=2	=2	=2	=2	=2	=2	=2	=2	=2	=2	=2	=2	=2	=2
2ryy	4r	.	2ryy	2r	.	4r	.	8g/	.	8gg\	.	2ryy	.	2ryy	2r	.	2r	.	8g/	.	8gg\yy	.	8gg\	.
.	.	.	.	.	.	.	.	8r	.	8r	.	.	.	.	.	.	.	.	8r	.	8ryy	.	8r	.
!	!	!LO:DY:b:rj	!	!	!	!	!LO:DY:b:rj	!	!	!	!LO:DY:b:rj	!	!	!	!	!	!	!	!	!	!	!	!	!
.	8G\	p	.	.	.	8G/	p	8B/	.	8d/	p	.	.	.	.	.	.	.	4r	.	4ryy	.	4r	.
.	8r	.	.	.	.	8r	.	8r	.	8r	.	.	.	.	.	.	.	.	.	.	.	.	.	.
=3	=3	=3	=3	=3	=3	=3	=3	=3	=3	=3	=3	=3	=3	=3	=3	=3	=3	=3	=3	=3	=3	=3	=3	=3
2ryy	8G\	.	2ryy	2r	.	8G/	.	8B/	.	8d/	.	2ryy	.	2ryy	2r	.	2r	.	2r	.	2ryy	.	2r	.
.	8r	.	.	.	.	8r	.	8r	.	8r	.	.	.	.	.	.	.	.	.	.	.	.	.	.
.	8G\	.	.	.	.	8G/	.	8B/	.	8d/	.	.	.	.	.	.	.	.	.	.	.	.	.	.
.	8r	.	.	.	.	8r	.	8r	.	8r	.	.	.	.	.	.	.	.	.	.	.	.	.	.
=4	=4	=4	=4	=4	=4	=4	=4	=4	=4	=4	=4	=4	=4	=4	=4	=4	=4	=4	=4	=4	=4	=4	=4	=4
*	*	*	*	*2\right	*	*2\right	*	*	*	*	*	*	*	*	*	*	*	*	*	*	*	*	*	*
!	!	!	!	!LO:TX:a:Bi:t=Müller:rj	!	!	!	!	!	!	!	!	!	!	!	!	!	!	!	!	!	!	!	!
2ryy	8G\	.	2ryy	4r	.	8G/	.	8B/	.	8d/	.	2ryy	.	2ryy	2r	.	2r	.	2r	.	2ryy	.	2r	.
.	8r	.	.	.	.	8r	.	8r	.	8r	.	.	.	.	.	.	.	.	.	.	.	.	.	.
.	8G\	.	.	4g/	Ah	8G/	.	8B/	.	8d/	.	.	.	.	.	.	.	.	.	.	.	.	.	.
.	8r	.	.	.	.	8r	.	8r	.	8r	.	.	.	.	.	.	.	.	.	.	.	.	.	.
!!LO:PB:g=original
=5	=5	=5	=5	=5	=5	=5	=5	=5	=5	=5	=5	=5	=5	=5	=5	=5	=5	=5	=5	=5	=5	=5	=5	=5
!	!	!	!	!	!	!	!	!	!	!	!	!	!	!LO:TX:a:t=P:w źródle łuk pojawiający się z nikąd:problem	!	!	!	!	!	!	!	!	!	!
2ryy	8G\	.	2ryy	4.g/	że-	8G/	.	8B/	.	8d/	.	2r	.	4g/	2r	.	2r	.	2r	.	2r	.	2r	.
.	8r	.	.	.	.	8r	.	8r	.	8r	.	.	.	.	.	.	.	.	.	.	.	.	.	.
.	8G\	.	.	.	.	8G/	.	8B/	.	8d/	.	.	.	4a/	.	.	.	.	.	.	.	.	.	.
.	8r	.	.	8a/	-gnam	8r	.	8r	.	8r	.	.	.	.	.	.	.	.	.	.	.	.	.	.
=6	=6	=6	=6	=6	=6	=6	=6	=6	=6	=6	=6	=6	=6	=6	=6	=6	=6	=6	=6	=6	=6	=6	=6	=6
*	*rep	*	*	*	*	*rep	*	*rep	*	*rep	*	*	*	*	*	*	*	*	*	*	*	*	*	*
!	!	!	!	!	!	!	!	!	!	!	!	!	!	!	!	!	!	!	!	!	!LO:TX:a:t=P:problem:na skutek błędnego zanotowania instrumentów dętych o jedną pięciolinię za wysoko ta pięciolinia [Oboe] jest w źródle pod fagotem; po zmianie systemu wraca na swoje miejsce	!	!	!
2ryy	8G\	.	2ryy	4.b\	Cię	8G/	.	8B/	.	8d/	.	2r	.	4.b\	2r	.	2r	.	2r	.	2ryy	.	2r	.
.	8r	.	.	.	.	8r	.	8r	.	8r	.	.	.	.	.	.	.	.	.	.	.	.	.	.
.	8G\	.	.	.	.	8G/	.	8B/	.	8d/	.	.	.	.	.	.	.	.	.	.	.	.	.	.
.	8r	.	.	8cc\	na	8r	.	8r	.	8r	.	.	.	8cc\	.	.	.	.	.	.	.	.	.	.
*	*Xrep	*	*	*	*	*Xrep	*	*Xrep	*	*Xrep	*	*	*	*	*	*	*	*	*	*	*	*	*	*
=7	=7	=7	=7	=7	=7	=7	=7	=7	=7	=7	=7	=7	=7	=7	=7	=7	=7	=7	=7	=7	=7	=7	=7	=7
*	*	*	*	*	*	*	*	*	*	*	*	*	*	*2\right	*	*	*	*	*	*	*	*	*	*
*	*rep	*	*	*	*	*rep	*	*rep	*	*rep	*	*	*	*	*	*	*	*	*	*	*	*	*	*
2ryy	8G\	.	2ryy	2dd\	za-	8G/	.	8B/	.	8d/	.	2r	.	[>2dd\	2r	.	2r	.	2r	.	2ryy	.	2r	.
.	8r	.	.	.	.	8r	.	8r	.	8r	.	.	.	.	.	.	.	.	.	.	.	.	.	.
.	8G\	.	.	.	.	8G/	.	8B/	.	8d/	.	.	.	.	.	.	.	.	.	.	.	.	.	.
.	8r	.	.	.	.	8r	.	8r	.	8r	.	.	.	.	.	.	.	.	.	.	.	.	.	.
*	*Xrep	*	*	*	*	*Xrep	*	*Xrep	*	*Xrep	*	*	*	*	*	*	*	*	*	*	*	*	*	*
=8	=8	=8	=8	=8	=8	=8	=8	=8	=8	=8	=8	=8	=8	=8	=8	=8	=8	=8	=8	=8	=8	=8	=8	=8
*	*rep	*	*	*	*	*rep	*	*rep	*	*rep	*	*	*	*	*	*	*	*	*	*	*	*	*	*
2ryy	8G\	.	2ryy	4dd\	-wsze	8G/	.	8B/	.	8d/	.	2r	.	4dd\]	2r	.	2r	.	2r	.	2ryy	.	2r	.
.	8r	.	.	.	.	8r	.	8r	.	8r	.	.	.	.	.	.	.	.	.	.	.	.	.	.
.	8G\	.	.	4dd\	u-	8G/	.	8B/	.	8d/	.	.	.	4dd\	.	.	.	.	.	.	.	.	.	.
.	8r	.	.	.	.	8r	.	8r	.	8r	.	.	.	.	.	.	.	.	.	.	.	.	.	.
*	*Xrep	*	*	*	*	*Xrep	*	*Xrep	*	*Xrep	*	*	*	*	*	*	*	*	*	*	*	*	*	*
=9	=9	=9	=9	=9	=9	=9	=9	=9	=9	=9	=9	=9	=9	=9	=9	=9	=9	=9	=9	=9	=9	=9	=9	=9
*	*	*	*	*	*	*	*	*	*	*	*	*	*	*	*	*	*	*	*^	*	*	*	*	*
*	*	*	*	*	*	*	*	*	*	*	*	*	*	*	*2\right	*	*2\right	*	*2\right	*2\right	*	*	*	*	*
*	*	*	*	*	*	*	*	*rep	*	*rep	*	*	*	*	*	*	*	*	*	*	*	*	*	*	*
!	!	!	!	!	!	!	!	!	!	!	!	!	!	!	!	!	!	!	!LO:TX:t=P:problem:w źródle w tym takcie Clar, Cor i Fag zapisane o jedną pięciolinię wyżej	!	!	!	!	!	!
!	!	!	!	!	!	!	!	!	!	!	!	!	!	!	!LO:TX:a:Bi:t=Fag:rj	!	!LO:TX:a:Bi:t=Cor.:rj	!	!LO:TX:a:Bi:t=Clar.:rj	!	!	!	!	!	!
!	!	!	!	!	!	!	!	!	!	!	!	!	!	!	!	!LO:DY:b:rj	!	!LO:DY:b:rj	!	!	!	!	!	!	!LO:DY:b:rj
2ryy	8E\	.	2ryy	4.ee\	-bo-	8G#X/	.	8B/	.	8d/	.	2r	.	4.ee\	2B\	p	2ee 2e/	p	2dd/	2b\	.	2ryy	.	[>2gg#X\	p
.	8r	.	.	.	.	8r	.	8r	.	8r	.	.	.	.	.	.	.	.	.	.	.	.	.	.	.
.	8E\	.	.	.	.	8G#/	.	8B/	.	8d/	.	.	.	.	.	.	.	.	.	.	.	.	.	.	.
.	8r	.	.	8dd\	-gie	8r	.	8r	.	8r	.	.	.	8dd\	.	.	.	.	.	.	.	.	.	.	.
*	*	*	*	*	*	*	*	*Xrep	*	*Xrep	*	*	*	*	*	*	*	*	*	*	*	*	*	*	*
!!LO:PB:g=original
=10	=10	=10	=10	=10	=10	=10	=10	=10	=10	=10	=10	=10	=10	=10	=10	=10	=10	=10	=10	=10	=10	=10	=10	=10	=10
*	*	*	*	*	*	*	*	*	*	*	*	*	*	*	*	*	*^	*	*	*	*	*	*	*	*
!	!	!	!	!	!	!	!	!	!	!	!	!	!	!	!LO:TX:a:Bi:t=Fag:rj	!	!LO:TX:a:Bi:t=Cor.:rj	!	!	!LO:TX:a:Bi:t=Clar.:rj	!	!	!	!	!	!
2ryy	8E\	.	2ryy	4.cc\	me	8G#X/	.	8B/	.	8d/	.	2r	.	4.cc\	(>2B\	.	[>2ee/	2e\	.	(>2dd/	2b\	.	2r	.	(>2gg#X\]	.
.	8r	.	.	.	.	8r	.	8r	.	8r	.	.	.	.	.	.	.	.	.	.	.	.	.	.	.	.
.	8E\	.	.	.	.	8G#/	.	8B/	.	8d/	.	.	.	.	.	.	.	.	.	.	.	.	.	.	.	.
.	8r	.	.	8b\	pod-	8r	.	8r	.	8r	.	.	.	8b\	.	.	.	.	.	.	.	.	.	.	.	.
=11	=11	=11	=11	=11	=11	=11	=11	=11	=11	=11	=11	=11	=11	=11	=11	=11	=11	=11	=11	=11	=11	=11	=11	=11	=11	=11
2ryy	8A\	.	2ryy	(>&(<4.a/	-da-	8E/	.	8A/	.	8c/	.	2ryy	.	(<4.a/	4A\)	.	2ee/_>	4e\	.	4cc/)	4a\	.	2r	.	4aa\)	.
.	8r	.	.	.	.	8r	.	8r	.	8r	.	.	.	.	.	.	.	.	.	.	.	.	.	.	.	.
.	8A\	.	.	.	.	8E/	.	8A/	.	8c/	.	.	.	.	4r	.	.	4re	.	4raa	4rAyy	.	.	.	4r	.
.	8r	.	.	16cc/LL	.	8r	.	8r	.	8r	.	.	.	16cc/LL	.	.	.	.	.	.	.	.	.	.	.	.
.	.	.	.	16b/JJ&)	.	.	.	.	.	.	.	.	.	16b/JJ)	.	.	.	.	.	.	.	.	.	.	.	.
*	*	*	*	*	*	*	*	*	*	*	*	*	*	*	*	*	*	*	*	*v	*v	*	*	*	*	*
=12	=12	=12	=12	=12	=12	=12	=12	=12	=12	=12	=12	=12	=12	=12	=12	=12	=12	=12	=12	=12	=12	=12	=12	=12	=12
*	*rep	*	*	*	*	*rep	*	*rep	*	*rep	*	*	*	*	*	*	*	*	*	*	*	*	*	*	*
2ryy	8A\	.	2ryy	4a/)	-sze	8E/	.	8A/	.	8c/	.	2ryy	.	4a/	2r	.	2ee/_>	2re	.	2r	.	2r	.	2r	.
.	8r	.	.	.	.	8r	.	8r	.	8r	.	.	.	.	.	.	.	.	.	.	.	.	.	.	.
.	8A\	.	.	4r	.	8E/	.	8A/	.	8c/	.	.	.	4r	.	.	.	.	.	.	.	.	.	.	.
.	8r	.	.	.	.	8r	.	8r	.	8r	.	.	.	.	.	.	.	.	.	.	.	.	.	.	.
*	*Xrep	*	*	*	*	*Xrep	*	*Xrep	*	*Xrep	*	*	*	*	*	*	*	*	*	*	*	*	*	*	*
=13	=13	=13	=13	=13	=13	=13	=13	=13	=13	=13	=13	=13	=13	=13	=13	=13	=13	=13	=13	=13	=13	=13	=13	=13	=13
*	*rep	*	*	*	*	*rep	*	*rep	*	*rep	*	*	*	*	*	*	*	*	*	*	*	*	*	*	*
2ryy	8A\	.	2ryy	2a/	Ah	8E/	.	8A/	.	8c/	.	2ryy	.	2a/	2r	.	2ee/_>	2re	.	2r	.	2r	.	2r	.
.	8r	.	.	.	.	8r	.	8r	.	8r	.	.	.	.	.	.	.	.	.	.	.	.	.	.	.
.	8A\	.	.	.	.	8E/	.	8A/	.	8c/	.	.	.	.	.	.	.	.	.	.	.	.	.	.	.
.	8r	.	.	.	.	8r	.	8r	.	8r	.	.	.	.	.	.	.	.	.	.	.	.	.	.	.
*	*Xrep	*	*	*	*	*Xrep	*	*Xrep	*	*Xrep	*	*	*	*	*	*	*	*	*	*	*	*	*	*	*
!!LO:PB:g=original
=14	=14	=14	=14	=14	=14	=14	=14	=14	=14	=14	=14	=14	=14	=14	=14	=14	=14	=14	=14	=14	=14	=14	=14	=14	=14
2ryy	8A\	.	2ryy	4b\	już	8E/	.	8A/	.	8c/	.	2r	.	4b\	2r	.	2ee/]	2re	.	2r	.	2r	.	2r	.
.	8r	.	.	.	.	8r	.	8r	.	8r	.	.	.	.	.	.	.	.	.	.	.	.	.	.	.
.	8A\	.	.	4cc\	nie	8E/	.	8A/	.	8c/	.	.	.	4cc\	.	.	.	.	.	.	.	.	.	.	.
.	8r	.	.	.	.	8r	.	8r	.	8r	.	.	.	.	.	.	.	.	.	.	.	.	.	.	.
=15	=15	=15	=15	=15	=15	=15	=15	=15	=15	=15	=15	=15	=15	=15	=15	=15	=15	=15	=15	=15	=15	=15	=15	=15	=15
*	*	*	*	*	*	*	*	*	*	*	*	*	*	*	*	*	*	*	*	*^	*	*	*	*	*
*	*	*	*	*	*	*	*	*rep	*	*rep	*	*	*	*	*	*	*	*	*	*	*	*	*	*	*	*
!	!	!	!	!	!	!	!	!	!	!	!	!	!	!	!	!	!	!	!	!	!	!LO:DY:b:rj	!	!	!	!
2ryy	8D\	.	2ryy	[>2dd\	wej-	8F#X/	.	8A/	.	8c/	.	2ryy	.	[>2dd\	[>2F#X\	.	[>2dd/	2re	.	[>2cc/	[>2a\	p	2ryy	.	2ryy	.
.	8r	.	.	.	.	8r	.	8r	.	8r	.	.	.	.	.	.	.	.	.	.	.	.	.	.	.	.
.	8D\	.	.	.	.	8F#/	.	8A/	.	8c/	.	.	.	.	.	.	.	.	.	.	.	.	.	.	.	.
.	8r	.	.	.	.	8r	.	8r	.	8r	.	.	.	.	.	.	.	.	.	.	.	.	.	.	.	.
*	*	*	*	*	*	*	*	*Xrep	*	*Xrep	*	*	*	*	*	*	*	*	*	*	*	*	*	*	*	*
=16	=16	=16	=16	=16	=16	=16	=16	=16	=16	=16	=16	=16	=16	=16	=16	=16	=16	=16	=16	=16	=16	=16	=16	=16	=16	=16
*	*rep	*	*	*	*	*rep	*	*rep	*	*rep	*	*	*	*	*	*	*	*	*	*	*	*	*	*	*	*
2ryy	8D\	.	2ryy	8dd\L]	.	8F#X/	.	8A/	.	8c/	.	2ryy	.	8dd\L]	(>2F#\]	.	2dd/_>	2re	.	2cc/]	2a\]	.	2ryy	.	2ryy	.
.	8r	.	.	8cc\J	.	8r	.	8r	.	8r	.	.	.	8cc\J	.	.	.	.	.	.	.	.	.	.	.	.
.	8D\	.	.	8a/L	-dę	8F#/	.	8A/	.	8c/	.	.	.	8a/L	.	.	.	.	.	.	.	.	.	.	.	.
.	8r	.	.	8f#X/J	.	8r	.	8r	.	8r	.	.	.	8f#X/J	.	.	.	.	.	.	.	.	.	.	.	.
*	*Xrep	*	*	*	*	*Xrep	*	*Xrep	*	*Xrep	*	*	*	*	*	*	*	*	*	*	*	*	*	*	*	*
=17	=17	=17	=17	=17	=17	=17	=17	=17	=17	=17	=17	=17	=17	=17	=17	=17	=17	=17	=17	=17	=17	=17	=17	=17	=17	=17
*	*rep	*	*	*	*	*	*	*	*	*	*	*	*	*	*	*	*	*	*	*	*	*	*	*	*	*
2ryy	8D\	.	2ryy	(>2d/	pod	8G/	.	8G/	.	8B/	.	2ryy	.	2d/	2G\)	.	2dd/_>	2re	.	2b/	2g\	.	2ryy	.	2ryy	.
.	8r	.	.	.	.	8r	.	8r	.	8r	.	.	.	.	.	.	.	.	.	.	.	.	.	.	.	.
.	8D\	.	.	.	.	8d\	.	8B/	.	8g/	.	.	.	.	.	.	.	.	.	.	.	.	.	.	.	.
.	8r	.	.	.	.	8r	.	8r	.	8r	.	.	.	.	.	.	.	.	.	.	.	.	.	.	.	.
*	*Xrep	*	*	*	*	*	*	*	*	*	*	*	*	*	*	*	*	*	*	*	*	*	*	*	*	*
*	*	*	*	*	*	*	*	*	*	*	*	*	*	*	*	*	*	*	*	*v	*v	*	*	*	*	*
=18	=18	=18	=18	=18	=18	=18	=18	=18	=18	=18	=18	=18	=18	=18	=18	=18	=18	=18	=18	=18	=18	=18	=18	=18	=18
*	*rep	*	*	*	*	*	*	*	*	*	*	*	*	*	*	*	*	*	*	*	*	*	*	*	*
2ryy	8D\	.	2ryy	4.cc\)	.	8d\	.	8c/	.	8a/	.	2ryy	.	(>4.cc\	[>2D\	.	2dd/_>	2re	.	(>4cc 4a\	.	2ryy	.	2ryy	.
.	8r	.	.	.	.	8r	.	8r	.	8r	.	.	.	.	.	.	.	.	.	.	.	.	.	.	.
.	8D\	.	.	.	.	8d\	.	8B/	.	8g/	.	.	.	.	.	.	.	.	.	8.ccL 8.a\	.	.	.	.	.
.	8r	.	.	8b\	twój	8r	.	8r	.	8r	.	.	.	8b\	.	.	.	.	.	.	.	.	.	.	.
.	.	.	.	.	.	.	.	.	.	.	.	.	.	.	.	.	.	.	.	16bJk 16g\)	.	.	.	.	.
*	*Xrep	*	*	*	*	*	*	*	*	*	*	*	*	*	*	*	*	*	*	*	*	*	*	*	*
!!LO:PB:g=original
=19	=19	=19	=19	=19	=19	=19	=19	=19	=19	=19	=19	=19	=19	=19	=19	=19	=19	=19	=19	=19	=19	=19	=19	=19	=19
*	*	*	*	*	*	*	*	*	*	*	*	*	*	*	*	*	*	*	*	*^	*	*	*	*	*
2ryy	8D\	.	2ryy	2a/	dach	8d\	.	8A/	.	8f#X/	.	2r	.	2a/)	4D\]	.	2dd/_>	2re	.	4a/	4f#X\	.	2r	.	2r	.
.	8r	.	.	.	.	8r	.	8r	.	8r	.	.	.	.	.	.	.	.	.	.	.	.	.	.	.	.
.	8D\	.	.	.	.	8d\	.	8A/	.	8f#/	.	.	.	.	4r	.	.	.	.	4r	4ryy	.	.	.	.	.
.	8r	.	.	.	.	8r	.	8r	.	8r	.	.	.	.	.	.	.	.	.	.	.	.	.	.	.	.
*	*	*	*	*	*	*	*	*	*	*	*	*	*	*	*	*	*	*	*	*v	*v	*	*	*	*	*
=20	=20	=20	=20	=20	=20	=20	=20	=20	=20	=20	=20	=20	=20	=20	=20	=20	=20	=20	=20	=20	=20	=20	=20	=20	=20
*	*rep	*	*	*	*	*rep	*	*rep	*	*rep	*	*	*	*	*	*	*	*	*	*	*	*	*	*	*
2ryy	8D\	.	2ryy	4r	.	8d\	.	8A/	.	8f#X/	.	2ryy	.	4r	2r	.	2dd/_>	2re	.	2r	.	2ryy	.	2ryy	.
.	8r	.	.	.	.	8r	.	8r	.	8r	.	.	.	.	.	.	.	.	.	.	.	.	.	.	.
.	8D\	.	.	8r	.	8d\	.	8A/	.	8f#/	.	.	.	8r	.	.	.	.	.	.	.	.	.	.	.
.	8r	.	.	8cc\	Re-	8r	.	8r	.	8r	.	.	.	8cc\	.	.	.	.	.	.	.	.	.	.	.
*	*Xrep	*	*	*	*	*Xrep	*	*Xrep	*	*Xrep	*	*	*	*	*	*	*	*	*	*	*	*	*	*	*
=21	=21	=21	=21	=21	=21	=21	=21	=21	=21	=21	=21	=21	=21	=21	=21	=21	=21	=21	=21	=21	=21	=21	=21	=21	=21
*	*rep	*	*	*	*	*	*	*rep	*	*	*	*	*	*	*	*	*	*	*	*	*	*	*	*	*
2ryy	8D\	.	2ryy	4.cc\	-tor-	8D/	.	8A/	.	8c/	.	2ryy	.	4.cc\	2r	.	2dd/_>	2re	.	(<4cc 4a/	.	2ryy	.	2ryy	.
.	8r	.	.	.	.	8r	.	8r	.	8r	.	.	.	.	.	.	.	.	.	.	.	.	.	.	.
.	8D\	.	.	.	.	8D/	.	8A/	.	8c/	.	.	.	.	.	.	.	.	.	16ccLL 16a/	.	.	.	.	.
.	.	.	.	.	.	.	.	.	.	.	.	.	.	.	.	.	.	.	.	16dd 16b/	.	.	.	.	.
.	8r	.	.	8b\	-ty	8r	.	8r	.	8r	.	.	.	8b\	.	.	.	.	.	16cc 16a/	.	.	.	.	.
.	.	.	.	.	.	.	.	.	.	.	.	.	.	.	.	.	.	.	.	16bJJ 16g/)	.	.	.	.	.
*	*Xrep	*	*	*	*	*	*	*Xrep	*	*	*	*	*	*	*	*	*	*	*	*	*	*	*	*	*
=22	=22	=22	=22	=22	=22	=22	=22	=22	=22	=22	=22	=22	=22	=22	=22	=22	=22	=22	=22	=22	=22	=22	=22	=22	=22
*	*rep	*	*	*	*	*rep	*	*rep	*	*rep	*	*	*	*	*	*	*	*	*	*	*	*	*	*	*
2ryy	8D\	.	2ryy	4.a/	że-	8D/	.	8A/	.	8c/	.	2ryy	.	4.a/	2r	.	2dd/]	2re	.	8a 8f#X/	.	2ryy	.	2ryy	.
.	8r	.	.	.	.	8r	.	8r	.	8r	.	.	.	.	.	.	.	.	.	8r	.	.	.	.	.
.	8D\	.	.	.	.	8D/	.	8A/	.	8c/	.	.	.	.	.	.	.	.	.	8.r	.	.	.	.	.
.	8r	.	.	8cc\	-gnam	8r	.	8r	.	8r	.	.	.	8cc\	.	.	.	.	.	.	.	.	.	.	.
.	.	.	.	.	.	.	.	.	.	.	.	.	.	.	.	.	.	.	.	16cc 16a/	.	.	.	.	.
*	*Xrep	*	*	*	*	*Xrep	*	*Xrep	*	*Xrep	*	*	*	*	*	*	*	*	*	*	*	*	*	*	*
=23	=23	=23	=23	=23	=23	=23	=23	=23	=23	=23	=23	=23	=23	=23	=23	=23	=23	=23	=23	=23	=23	=23	=23	=23	=23
*	*	*	*	*	*	*	*	*	*	*	*	*	*	*	*	*	*	*	*	*^	*	*	*	*	*
*	*rep	*	*	*	*	*rep	*	*	*	*	*	*	*	*	*	*	*	*	*	*	*	*	*	*	*	*
!	!	!	!	!LO:TX:a:t=P:w źródle brak początku ligatury:problem	!	!	!	!	!	!	!	!	!	!	!	!	!	!	!	!	!	!	!	!	!	!
2ryy	8D\	.	2ryy	[>2ee\	was.	8D/	.	8A#X/	.	8c#X/	.	2ryy	.	2ee\	2r	.	2gg/	2re	.	2cc#X/	2a#X\	.	2ryy	.	[>2gg\	.
.	8r	.	.	.	.	8r	.	8r	.	8r	.	.	.	.	.	.	.	.	.	.	.	.	.	.	.	.
.	8D\	.	.	.	.	8D/	.	8A#/	.	8c#/	.	.	.	.	.	.	.	.	.	.	.	.	.	.	.	.
.	8r	.	.	.	.	8r	.	8r	.	8r	.	.	.	.	.	.	.	.	.	.	.	.	.	.	.	.
*	*Xrep	*	*	*	*	*Xrep	*	*	*	*	*	*	*	*	*	*	*	*	*	*	*	*	*	*	*	*
!!LO:PB:g=original
*	*	*	*	*	*	*	*	*	*	*	*	*	*	*	*	*	*	*	*	*v	*v	*	*	*	*	*
=24	=24	=24	=24	=24	=24	=24	=24	=24	=24	=24	=24	=24	=24	=24	=24	=24	=24	=24	=24	=24	=24	=24	=24	=24	=24
2ryy	8D\	.	2ryy	4ee\]	.	8D/	.	8A#X/	.	8c#X/	.	2r	.	(>4ee\	2r	.	(>2gg/	2re	.	(>4cc#X 4a#X\	.	2r	.	(>2gg\]	.
.	8r	.	.	.	.	8r	.	8r	.	8r	.	.	.	.	.	.	.	.	.	.	.	.	.	.	.
.	8D\	.	.	4dd\	i	8D/	.	8B/	.	8d/	.	.	.	8ee\L	.	.	.	.	.	8dd 8b\)	.	.	.	.	.
.	8r	.	.	.	.	8r	.	8r	.	8r	.	.	.	8dd\J)	.	.	.	.	.	8r	.	.	.	.	.
=25	=25	=25	=25	=25	=25	=25	=25	=25	=25	=25	=25	=25	=25	=25	=25	=25	=25	=25	=25	=25	=25	=25	=25	=25	=25
*	*rep	*	*	*	*	*rep	*	*	*	*	*	*	*	*	*	*	*	*	*	*	*	*	*	*	*
2ryy	8D\	.	2ryy	4cc\	peł-	8D/	.	8An/	.	8cn/	.	2ryy	.	4.cc\	[>2d\	.	4dd/)	2re	.	(>4ccn 4an/	.	2r	.	4dd\)	.
.	8r	.	.	.	.	8r	.	8r	.	8r	.	.	.	.	.	.	.	.	.	.	.	.	.	.	.
.	8D\	.	.	(>8cc\	-ne	8D/	.	8A/	.	8c/	.	.	.	.	.	.	4raa	.	.	16ccLL 16a/	.	.	.	4r	.
.	.	.	.	.	.	.	.	.	.	.	.	.	.	.	.	.	.	.	.	16dd 16b/	.	.	.	.	.
.	8r	.	.	8b\)	.	8r	.	8r	.	8r	.	.	.	8b\	.	.	.	.	.	16cc 16a/	.	.	.	.	.
.	.	.	.	.	.	.	.	.	.	.	.	.	.	.	.	.	.	.	.	16bJJ 16g/)	.	.	.	.	.
*	*Xrep	*	*	*	*	*Xrep	*	*	*	*	*	*	*	*	*	*	*	*	*	*	*	*	*	*	*
=26	=26	=26	=26	=26	=26	=26	=26	=26	=26	=26	=26	=26	=26	=26	=26	=26	=26	=26	=26	=26	=26	=26	=26	=26	=26
*	*rep	*	*	*	*	*rep	*	*rep	*	*rep	*	*	*	*	*	*	*	*	*	*	*	*	*	*	*
2ryy	8D\	.	2ryy	4.a/	kim-	8D/	.	8An/	.	8cn/	.	2ryy	.	4.a/	2d\]	.	2r	2ryy	.	8a 8f#X/	.	2ryy	.	2r	.
.	8r	.	.	.	.	8r	.	8r	.	8r	.	.	.	.	.	.	.	.	.	8r	.	.	.	.	.
.	8D\	.	.	.	.	8D/	.	8A/	.	8c/	.	.	.	.	.	.	.	.	.	8r	.	.	.	.	.
.	8r	.	.	8cc\	-lu	8r	.	8r	.	8r	.	.	.	8cc\	.	.	.	.	.	16r	.	.	.	.	.
.	.	.	.	.	.	.	.	.	.	.	.	.	.	.	.	.	.	.	.	16cc 16a\	.	.	.	.	.
*	*Xrep	*	*	*	*	*Xrep	*	*Xrep	*	*Xrep	*	*	*	*	*	*	*	*	*	*	*	*	*	*	*
=27	=27	=27	=27	=27	=27	=27	=27	=27	=27	=27	=27	=27	=27	=27	=27	=27	=27	=27	=27	=27	=27	=27	=27	=27	=27
*	*	*	*	*	*	*	*	*	*	*	*	*	*	*	*	*	*	*	*	*^	*	*	*	*	*
*	*rep	*	*	*	*	*rep	*	*	*	*	*	*	*	*	*	*	*	*	*	*	*	*	*	*	*	*
2ryy	8D\	.	2ryy	[>2ee\	dla-	8D/	.	8A#X/	.	8c#X/	.	2ryy	.	[>2ee\	4G\	.	[>2gg/	2re	.	[>2cc#X/	[>2a#X\	.	2ryy	.	[>2gg\	.
.	8r	.	.	.	.	8r	.	8r	.	8r	.	.	.	.	.	.	.	.	.	.	.	.	.	.	.	.
.	8D\	.	.	.	.	8D/	.	8A#/	.	8c#/	.	.	.	.	4r	.	.	.	.	.	.	.	.	.	.	.
.	8r	.	.	.	.	8r	.	8r	.	8r	.	.	.	.	.	.	.	.	.	.	.	.	.	.	.	.
*	*Xrep	*	*	*	*	*Xrep	*	*	*	*	*	*	*	*	*	*	*	*	*	*	*	*	*	*	*	*
=28	=28	=28	=28	=28	=28	=28	=28	=28	=28	=28	=28	=28	=28	=28	=28	=28	=28	=28	=28	=28	=28	=28	=28	=28	=28	=28
*	*rep	*	*	*	*	*rep	*	*	*	*	*	*	*	*	*	*	*	*	*	*	*	*	*	*	*	*
2ryy	8D\	.	2ryy	4ee\]	.	8D/	.	8A#X/	.	8c#X/	.	2ryy	.	4ee\]	2r	.	2gg/]	2re	.	4cc#/]	4a#\]	.	2ryy	.	2gg\]	.
.	8r	.	.	.	.	8r	.	8r	.	8r	.	.	.	.	.	.	.	.	.	.	.	.	.	.	.	.
.	8D\	.	.	4dd\	-sze	8D/	.	8B/	.	8d/	.	.	.	4dd\	.	.	.	.	.	8dd/	8b\	.	.	.	.	.
.	8r	.	.	.	.	8r	.	8r	.	8r	.	.	.	.	.	.	.	.	.	8r	8rcyy	.	.	.	.	.
*	*Xrep	*	*	*	*	*Xrep	*	*	*	*	*	*	*	*	*	*	*	*	*	*	*	*	*	*	*	*
*	*	*	*	*	*	*	*	*	*	*	*	*	*	*	*	*	*	*	*	*v	*v	*	*	*	*	*
=29	=29	=29	=29	=29	=29	=29	=29	=29	=29	=29	=29	=29	=29	=29	=29	=29	=29	=29	=29	=29	=29	=29	=29	=29	=29
2ryy	8GG/	.	2ryy	2dd\	u-	8G/	.	8B/	.	8d/	.	2ryy	.	2dd\	2r	.	4dd/	2re	.	2r	.	2ryy	.	4dd\	.
.	8r	.	.	.	.	8r	.	8r	.	8r	.	.	.	.	.	.	.	.	.	.	.	.	.	.	.
.	8GG/	.	.	.	.	8G/	.	8B/	.	8d/	.	.	.	.	.	.	4raa	.	.	.	.	.	.	4r	.
.	8r	.	.	.	.	8r	.	8r	.	8r	.	.	.	.	.	.	.	.	.	.	.	.	.	.	.
!!LO:PB:g=original
*	*	*	*	*	*	*	*	*	*	*	*	*	*	*	*	*	*v	*v	*	*	*	*	*	*	*
=30	=30	=30	=30	=30	=30	=30	=30	=30	=30	=30	=30	=30	=30	=30	=30	=30	=30	=30	=30	=30	=30	=30	=30	=30
2ryy	8GG/	.	2ryy	4.cc\	-mie-	8G/	.	8B/	.	8d/	.	2r	.	4.cc\	[>2B\	.	(>2dd 2g/	.	2r	.	2r	.	2r	.
.	8r	.	.	.	.	8r	.	8r	.	8r	.	.	.	.	.	.	.	.	.	.	.	.	.	.
.	8GG/	.	.	.	.	8G/	.	8B/	.	8d/	.	.	.	.	.	.	.	.	.	.	.	.	.	.
.	8r	.	.	8b\	-rać	8r	.	8r	.	8r	.	.	.	8b\	.	.	.	.	.	.	.	.	.	.
=31	=31	=31	=31	=31	=31	=31	=31	=31	=31	=31	=31	=31	=31	=31	=31	=31	=31	=31	=31	=31	=31	=31	=31	=31
*	*	*	*	*	*	*rep	*	*rep	*	*	*	*	*	*	*	*	*	*	*	*	*	*	*	*
2ryy	8E\	.	2ryy	[>2b\	już	8G/	.	8B/	.	8e/	.	2ryy	.	[>2b\	2B\_>	.	[>2ee 2g/)	.	2ryy	.	2ryy	.	2ryy	.
.	8r	.	.	.	.	8r	.	8r	.	8r	.	.	.	.	.	.	.	.	.	.	.	.	.	.
.	8E\	.	.	.	.	8G/	.	8B/	.	8e/	.	.	.	.	.	.	.	.	.	.	.	.	.	.
.	8r	.	.	.	.	8r	.	8r	.	8r	.	.	.	.	.	.	.	.	.	.	.	.	.	.
*	*	*	*	*	*	*Xrep	*	*Xrep	*	*	*	*	*	*	*	*	*	*	*	*	*	*	*	*
=32	=32	=32	=32	=32	=32	=32	=32	=32	=32	=32	=32	=32	=32	=32	=32	=32	=32	=32	=32	=32	=32	=32	=32	=32
*	*rep	*	*	*	*	*rep	*	*rep	*	*rep	*	*	*	*	*	*	*	*	*	*	*	*	*	*
2ryy	8E\	.	2ryy	2b\]	.	8G/	.	8B/	.	8e/	.	2ryy	.	2b\]	2B\]	.	2ee] 2g/	.	2ryy	.	2ryy	.	2ryy	.
.	8r	.	.	.	.	8r	.	8r	.	8r	.	.	.	.	.	.	.	.	.	.	.	.	.	.
.	8E\	.	.	.	.	8G/	.	8B/	.	8e/	.	.	.	.	.	.	.	.	.	.	.	.	.	.
.	8r	.	.	.	.	8r	.	8r	.	8r	.	.	.	.	.	.	.	.	.	.	.	.	.	.
*	*Xrep	*	*	*	*	*Xrep	*	*Xrep	*	*Xrep	*	*	*	*	*	*	*	*	*	*	*	*	*	*
=33	=33	=33	=33	=33	=33	=33	=33	=33	=33	=33	=33	=33	=33	=33	=33	=33	=33	=33	=33	=33	=33	=33	=33	=33
*	*	*	*	*	*	*rep	*	*	*	*	*	*	*	*	*	*	*	*	*	*	*	*	*	*
2ryy	8AA/	.	2ryy	2cc\	mnie	8G/	.	8c/	.	8e-X/	.	2ryy	.	2cc\	[>2c\	.	[>2ee-X 2g/	.	2ryy	.	2ryy	.	2ryy	.
.	8r	.	.	.	.	8r	.	8r	.	8r	.	.	.	.	.	.	.	.	.	.	.	.	.	.
.	8AA/	.	.	.	.	8G/	.	8c/	.	8e-/	.	.	.	.	.	.	.	.	.	.	.	.	.	.
.	8r	.	.	.	.	8r	.	8r	.	8r	.	.	.	.	.	.	.	.	.	.	.	.	.	.
*	*	*	*	*	*	*Xrep	*	*	*	*	*	*	*	*	*	*	*	*	*	*	*	*	*	*
=34	=34	=34	=34	=34	=34	=34	=34	=34	=34	=34	=34	=34	=34	=34	=34	=34	=34	=34	=34	=34	=34	=34	=34	=34
*	*rep	*	*	*	*	*rep	*	*rep	*	*rep	*	*	*	*	*	*	*	*	*	*	*	*	*	*
2ryy	8AA/	.	2ryy	4.b\	bie-	8G/	.	8c/	.	8e-X/	.	2ryy	.	4.b\	2c\]	.	2ee-] 2g/	.	2ryy	.	2ryy	.	2ryy	.
.	8r	.	.	.	.	8r	.	8r	.	8r	.	.	.	.	.	.	.	.	.	.	.	.	.	.
.	8AA/	.	.	.	.	8G/	.	8c/	.	8e-/	.	.	.	.	.	.	.	.	.	.	.	.	.	.
.	8r	.	.	8a\	-rze	8r	.	8r	.	8r	.	.	.	8a\	.	.	.	.	.	.	.	.	.	.
*	*Xrep	*	*	*	*	*Xrep	*	*Xrep	*	*Xrep	*	*	*	*	*	*	*	*	*	*	*	*	*	*
!!LO:PB:g=original
=35	=35	=35	=35	=35	=35	=35	=35	=35	=35	=35	=35	=35	=35	=35	=35	=35	=35	=35	=35	=35	=35	=35	=35	=35
2ryy	8D\	.	2ryy	[<2a/	strach	8F#X/	.	8A/	.	8d/	.	2r	.	[<2a/	[>2A\	.	[>2dd [>2f#X/	.	2r	.	2r	.	2r	.
.	8r	.	.	.	.	8r	.	8r	.	8r	.	.	.	.	.	.	.	.	.	.	.	.	.	.
.	8D\	.	.	.	.	8F#/	.	8A/	.	8d/	.	.	.	.	.	.	.	.	.	.	.	.	.	.
.	8r	.	.	.	.	8r	.	8r	.	8r	.	.	.	.	.	.	.	.	.	.	.	.	.	.
=36	=36	=36	=36	=36	=36	=36	=36	=36	=36	=36	=36	=36	=36	=36	=36	=36	=36	=36	=36	=36	=36	=36	=36	=36
*	*rep	*	*	*	*	*rep	*	*rep	*	*rep	*	*	*	*	*	*	*	*	*	*	*	*	*	*
2ryy	8D\	.	2ryy	4a/]	.	8F#X/	.	8A/	.	8d/	.	2ryy	.	4a/]	2A\]	.	2dd] 2f#X/]	.	2r	.	2ryy	.	2ryy	.
.	8r	.	.	.	.	8r	.	8r	.	8r	.	.	.	.	.	.	.	.	.	.	.	.	.	.
.	8D\	.	.	4r	.	8F#/	.	8A/	.	8d/	.	.	.	4r	.	.	.	.	.	.	.	.	.	.
.	8r	.	.	.	.	8r	.	8r	.	8r	.	.	.	.	.	.	.	.	.	.	.	.	.	.
*	*Xrep	*	*	*	*	*Xrep	*	*Xrep	*	*Xrep	*	*	*	*	*	*	*	*	*	*	*	*	*	*
=37	=37	=37	=37	=37	=37	=37	=37	=37	=37	=37	=37	=37	=37	=37	=37	=37	=37	=37	=37	=37	=37	=37	=37	=37
*	*	*	*	*	*	*	*	*	*	*	*	*	*	*	*	*	*	*	*^	*	*	*	*	*
*	*	*	*	*	*	*	*	*	*	*rep	*	*	*	*	*	*	*	*	*	*	*	*	*	*	*
2ryy	8GG/	.	2ryy	2dd\	Ah	8G/	.	8B/	.	8d/	.	2ryy	.	2dd\	[>2B\	.	[>2dd [<2g/	.	[>2dd/	2b\	.	2ryy	.	2ryy	.
.	8r	.	.	.	.	8r	.	8r	.	8r	.	.	.	.	.	.	.	.	.	.	.	.	.	.	.
.	8GG/	.	.	.	.	8G/	.	8B/	.	8d/	.	.	.	.	.	.	.	.	.	.	.	.	.	.	.
.	8r	.	.	.	.	8r	.	8r	.	8r	.	.	.	.	.	.	.	.	.	.	.	.	.	.	.
*	*	*	*	*	*	*	*	*	*	*Xrep	*	*	*	*	*	*	*	*	*	*	*	*	*	*	*
=38	=38	=38	=38	=38	=38	=38	=38	=38	=38	=38	=38	=38	=38	=38	=38	=38	=38	=38	=38	=38	=38	=38	=38	=38	=38
*	*rep	*	*	*	*	*rep	*	*rep	*	*rep	*	*	*	*	*	*	*	*	*	*	*	*	*	*	*
2ryy	8GG/	.	2ryy	4.gg\	żeg-	8G/	.	8B/	.	8d/	.	2ryy	.	(>4.gg\	2B\]	.	2dd] 2g/]	.	2dd/]	2b\	.	2ryy	.	2ryy	.
.	8r	.	.	.	.	8r	.	8r	.	8r	.	.	.	.	.	.	.	.	.	.	.	.	.	.	.
.	8GG/	.	.	.	.	8G/	.	8B/	.	8d/	.	.	.	.	.	.	.	.	.	.	.	.	.	.	.
.	8r	.	.	8b\	-nam	8r	.	8r	.	8r	.	.	.	8b\)	.	.	.	.	.	.	.	.	.	.	.
*	*Xrep	*	*	*	*	*Xrep	*	*Xrep	*	*Xrep	*	*	*	*	*	*	*	*	*	*	*	*	*	*	*
*	*	*	*	*	*	*	*	*	*	*	*	*	*	*	*	*	*	*	*v	*v	*	*	*	*	*
=39	=39	=39	=39	=39	=39	=39	=39	=39	=39	=39	=39	=39	=39	=39	=39	=39	=39	=39	=39	=39	=39	=39	=39	=39
*	*	*	*	*	*	*rep	*	*rep	*	*	*	*	*	*	*	*	*	*	*	*	*	*	*	*
!	!	!	!	!LO:TX:a:t=P:w źródle brak początku ligatury:problem	!	!	!	!	!	!	!	!	!	!	!	!	!	!	!	!	!	!	!	!
2ryy	8E\	.	2ryy	[>2b\	Cię	8G/	.	8B/	.	8e/	.	2ryy	.	[>2b\	[>2B\	.	[>2ee [<2g/	.	4ee 4g\	.	2ryy	.	2ryy	.
.	8r	.	.	.	.	8r	.	8r	.	8r	.	.	.	.	.	.	.	.	.	.	.	.	.	.
.	8E\	.	.	.	.	8G/	.	8B/	.	8e/	.	.	.	.	.	.	.	.	4r	.	.	.	.	.
.	8r	.	.	.	.	8r	.	8r	.	8r	.	.	.	.	.	.	.	.	.	.	.	.	.	.
*	*	*	*	*	*	*Xrep	*	*Xrep	*	*	*	*	*	*	*	*	*	*	*	*	*	*	*	*
!!LO:PB:g=original
=40	=40	=40	=40	=40	=40	=40	=40	=40	=40	=40	=40	=40	=40	=40	=40	=40	=40	=40	=40	=40	=40	=40	=40	=40
2ryy	8E\	.	2ryy	2b\]	.	8G/	.	8B/	.	8e/	.	2r	.	2b\]	2B\]	.	2ee] 2g/]	.	2r	.	2r	.	2r	.
.	8r	.	.	.	.	8r	.	8r	.	8r	.	.	.	.	.	.	.	.	.	.	.	.	.	.
.	8E\	.	.	.	.	8G/	.	8B/	.	8e/	.	.	.	.	.	.	.	.	.	.	.	.	.	.
.	8r	.	.	.	.	8r	.	8r	.	8r	.	.	.	.	.	.	.	.	.	.	.	.	.	.
=41	=41	=41	=41	=41	=41	=41	=41	=41	=41	=41	=41	=41	=41	=41	=41	=41	=41	=41	=41	=41	=41	=41	=41	=41
.	.	.	.	(16qqa/LL	.	.	.	.	.	.	.	.	.	(<16qqa/LL	.	.	.	.	.	.	.	.	.	.
.	.	.	.	16qqb/JJ	.	.	.	.	.	.	.	.	.	16qqb/JJ	.	.	.	.	.	.	.	.	.	.
*	*	*	*	*	*	*rep	*	*	*	*	*	*	*	*	*	*	*	*	*	*	*	*	*	*
2ryy	8AA/	.	2ryy	2cc\)	Ka-	8G/	.	8c/	.	8e-X/	.	2r	.	2cc\)	[>2c\	.	2ee-X 2g/	.	2r	.	2r	.	2r	.
.	8r	.	.	.	.	8r	.	8r	.	8r	.	.	.	.	.	.	.	.	.	.	.	.	.	.
.	8AA/	.	.	.	.	8G/	.	8c/	.	8e-/	.	.	.	.	.	.	.	.	.	.	.	.	.	.
.	8r	.	.	.	.	8r	.	8r	.	8r	.	.	.	.	.	.	.	.	.	.	.	.	.	.
*	*	*	*	*	*	*Xrep	*	*	*	*	*	*	*	*	*	*	*	*	*	*	*	*	*	*
=42	=42	=42	=42	=42	=42	=42	=42	=42	=42	=42	=42	=42	=42	=42	=42	=42	=42	=42	=42	=42	=42	=42	=42	=42
*	*	*	*	*	*	*	*	*rep	*	*	*	*	*	*	*	*	*	*	*	*	*	*	*	*
2ryy	8D\	.	2ryy	4.b\	-rol-	8F#X/	.	8c/	.	8d/	.	2r	.	4.b\	2c\]	.	2dd 2f#X/	.	2r	.	2r	.	2r	.
.	8r	.	.	.	.	8r	.	8r	.	8r	.	.	.	.	.	.	.	.	.	.	.	.	.	.
.	8D\	.	.	.	.	8F#/	.	8c/	.	8d/	.	.	.	.	.	.	.	.	.	.	.	.	.	.
.	8r	.	.	8a\	-ciu	8r	.	8r	.	8r	.	.	.	8a\	.	.	.	.	.	.	.	.	.	.
*	*	*	*	*	*	*	*	*Xrep	*	*	*	*	*	*	*	*	*	*	*	*	*	*	*	*
=43	=43	=43	=43	=43	=43	=43	=43	=43	=43	=43	=43	=43	=43	=43	=43	=43	=43	=43	=43	=43	=43	=43	=43	=43
2ryy	8G\	.	2ryy	4g/	ma.	8G/	.	8B/	.	8d/	.	4r	.	4g/	8B\	.	8dd 8g/	.	4r	.	4r	.	4r	.
.	8r	.	.	.	.	8r	.	8r	.	8r	.	.	.	.	8r	.	8r	.	.	.	.	.	.	.
!	!	!LO:DY:b:rj	!	!	!	!	!	!	!	!	!LO:DY:b:rj	!	!LO:DY:b:rj	!	!	!LO:DY:b:rj	!	!	!	!LO:DY:b:rj	!	!LO:DY:b:rj	!	!LO:DY:b:rj
.	4GG/	f	.	4r	.	4g 4G\	.	4b 4d 4G/	.	4gg 4b 4d\	f	4G\	f	4r	4B	f	4dd 4g/	.	4gg 4b\	f	4bb\	f	4ggg\	f
==	==	==	==	==	==	==	==	==	==	==	==	==	==	==	==	==	==	==	==	==	==	==	==	==
*-	*-	*-	*-	*-	*-	*-	*-	*-	*-	*-	*-	*-	*-	*-	*-	*-	*-	*-	*-	*-	*-	*-	*-	*-
!!title: @{OTL};
!!!RDF**kern: > = above
!!!RDF**kern: < = below
!!!RDF**kern: | = vertical stroke
!!!RDF**kern: N = linked
!!!RDF**kern: i = editorial accidental
!!!EED: Wojciech Jakubiak-Danek
!!!EST: 2021-05-10
!!!URL-scan: http://repozytorium.nifc.pl/skany/pl-wtm-nut--r1664
!!!ONB-nifc: UWAGA: skany 0055 - 0061
!!!ENC: Mateusz Solarz
!!!END: 2021-04-28
